X:70
T:Hopping Biddy
R:highland
C:Traditional
S:Mickey Doherty
M:C
K:D
d2||B>d {Bc}B>A B<d d>g|e<d g>d e<g d2|B>d {Bc}B>A B<d d>f|{a}g>e d<B
{AB}A2 G>A|
B>d {Bc}B>A B<d d>g|e<d g>d e>d e<g|B>d {Bc}B>A B<d e>f|{a}g>e d<B {c}B<A A>E||
A2 a2 {b}a>f e>d|e>d B<G +G2B2+ d2|{ef}e2 e>d (3Bcd e>a|{ga}g>e d<B {B}A2 A<E|
A2 a2 {b}a>f e>d|{ef}e>d B<G +G2B2+ d2|{ef}e2 e>d (3Bcd f>a|{ga}g>e d<B
{AB}A2 G>A||
{Bc}"2nd time around"
B>A {c}B>G B<d d>g|e<d g>d e<g d2|{Bc}B>A {c}B>G B<d d>f|{a}g>e d<B {AB}A2 G>A|
{Bc}B>A {c}B>G B<d d>g|e<d g>d e>d e<g|{Bc}B>A {c}B>G B<d d>f|{a}g>e d<B
{c}B<A A<E||
A2 a2 {b}a>f e>d|e<g d>A {Bc}B2 d>B|A2 a2 {b}a>f e>d|{ga}g>e d<B {B}A2 A<E|
A2 a2 {b}a>f e>d|e<g d>e {Bc}B2 d2|e>g d>A B<d f>a|{ga}g>e d<B {AB}A2 G>A||
"3rd time around"
B>A {c}B>G B<d d>g|e<d g>d e>d e<g|{Bc}B>A {c}B>G B<d d>f|{a}g>e d<B {AB}A2 G>A|
{Bc}BA {c}B>G B<d d>g|e<d g>d e>d e<g|{Bc}B>A {c}B>G B<d d>f|{a}g>e d<B
{c}B<A A<E||
A2 a2 {b}a>f e>d|e<g d>A {Bc}B2 d>B|A2 a2 {b}a>f e>d|{ga}g>e d<B {c}B<A A<E|
A2 a2 {b}a>f e>d|e<g d>A {Bc}B2 d2|{ef}e2 e>d c<d f>a|{ga}g>e d<B {AB}A2 G>A||
{Bc}"4th and last time around"
B>A {c}B>G B<d d>g|e<d g>d e>d e<g|{Bc}B>A {c}B<G B<d d>f|{a}g>e d<B {AB}A2 G>A|
{Bc}BA {c}B>G B<d d>g|e<d g>d e>d e<g|{Bc}BA {c}B>G B<d d>f|{a}g>e d<B
{c}B<A A<E||
A2 a2 {b}a>f e>d|e<g d>A {Bc}B2 d>B|A2 a2 {b}a>f e>d|{ga}g>e d<B {B}A2 A<E|
A2 a2 {b}a>f e>d|e<g d>A {Bc}B2 d2|{ef}e2 e>d c<d f>a|{ga}g>e d<B A4|A,4||

